X: 1
T: Larry O'Gaff
S: Terry Traub 12-27-1997
B: from R. Miller/New England Fiddlers Repertoire
S: https://www.facebook.com/groups/Fiddletuneoftheday/ 2020-11-17
S: https://www.facebook.com/groups/Fiddletuneoftheday/photos/
R: Jig
M: 6/8
K: G
L: 1/8
   d |\
"G"g2G BAG | ded dBG | "C"cec "G"BdB | "Am"ABc "D"def |\
"G"g2G BAG | ded dBG | "C"cec "G"BdB |  "D"AGA "G"G2 :|
|: d |\
"G"d2g    gfg | "G"gfg "D"afd | "D"d2a    aga | "D"aga "Em"b2a |\
"G"gba "C"gfe | "G"dge    dBG | "C"cec "G"BdB | "D"AGA  "G"G2 :|
